X:25
T:Flowers of Edinbarough. WHG.025
T:Flowers of Edinburgh. WHG.025
R:reel
S:W.H.Giles MS,Bampton,Oxfordshire,1839p24, 25
O:England
H:donated by Mrs W.R.Kettlewell to VWML,Apr 1927.
A:Bampton, Oxfordshire
N:Starts on the bottom stave of p24, continues on
N:last stave of p25. The “a” in the title very
N:carefully added as an afterthought.(!)
N:Bar 12 is |Bd d4| in MS, bar 14 |e4ef g2e2|.
N:No repeat indicated for B-music.
Z:PJHeadford – VMP 2009
M:2/4
L:1/16
Q:1/2=60
K:G
DEFD G2G2|GABc d2B2|AGFE D2EF|G2E2 E4|
DEFD G2G2|Bc d2 g2e2|dcBA G2A2|B2G2 G4:|
g2g2 fgaf|g2g2 fga2|gfed e2e2|B2d2 d4|
dcBc d2d2|e2ef g2e2|dcBA G2A2|B2G2 G4|]

